X: 1233
T: Karşıdan Yâr Güle Güle
C: Dede Efendi
O: Turkey
F: http://compmusic.upf.edu/node/140
N: beyati--sarki--aksak--karsidan_yar--dede_efendi
N: makam= beyati
N: form= sarki
N: usul= aksak = 9/8
M: 9/8
L: 1/16
K: C _2/4B   
Q: 1/4=216
%%MIDI tuningsystem comma53
d4 _3/4e2^3/4f2 e2d2 c2B2 c2 | d18  | \
w:  Kar şı *  dan   |  yâr   | 
^3/4f2g2 a4 g2f2 _3/4e2d2 c2 | d4_3/4e2 ^3/4f2e2 d2c2 B2c2  | 
w:  gü *  le  gü *  le    |  Kar şı *  dan   | 
d18 | ^3/4f2 g2a4g2 f2_3/4e2 d2c2  | \
w:  yâr   |  gü *  le  gü *  le    | 
c4 c4 c8-c2 | c2 B2B2 A2A2 G2e2 d2e2  | 
w:  Yâ rim  gel  |  di   | 
d2c2 c2B2 B2A2 A6 | A6 g2^3/4f2 g2a6  | \
w:  câ *  nım  *  gel  |  di   SAZ  | 
a3g ^3/4f2g2 a8-a2 | c'4_b2 a2g2 ^3/4f2_3/4e2 d2c2  | 
w:  Sel *  vi  *  gi  |  bi   | 
e2d2 d2c2 c2B2 B4 A2 | A6 g2^3/4f2 g2a6  | \
w:  sa *  lı *  na  |  rak   SAZ  | 
a3g ^3/4f2g2 a8-a2 | _b3ag2 ^3/4f2g8-g2  | 
w:  Sel *  vi  *  gi  |  bi   | 
g4 g4 g4 f4 _1/4e2 | g3f_1/4e2 g2f2 g2f4e2  | \
w:  sa lı na  |  rak    | 
g4 g4 g4 f4 _1/4e2 | d6 _1/4e2c4a2 g2f2  | 
w:  Yâ rim  gel  |  di   | 
f2e2 e2d2 d2c2 c4 B2 | B12a2 g2f2  | \
w:  câ *  nım  *  gel  |  di   Ah   | 
f2e2 e2d2 d2c2 c4 B2 | B18  | 
w:  bir  *  ta *  nem  *  gel  |  di    | 
f18 | e8-e2 d2e2 d2c2  | e2d2 d2c2 c2B2 B4 A2 | \
w:  Yâr   |  yâr   |  câ *  nâ *  nım  *  gel  | 
A3c'b2 a2g2 ^3/4f2e4d2  | 
w:  di   SAZ  | 
e2de ^3/4f2ef g2fg a6 | a3c'b2 a2g2 f2e2 d2c2  | \
w:   |   | 
Bcde fedc cBBA A6 | 
w:   | 
A3c'b2 a2g2 ^3/4f2e4d2  | e2de ^3/4f2ef g2fg a6 | \
w:  di   SAZ  |   | 
a3c'b2 a2g2 f2e2 d2c2  | 
w:   | 
Bcde fedc cBBA A6 | d4_3/4e2 ^3/4f2e2 d2c2 B2c2  | 
w:   |  Kar şı *  dan   | 
d18 | ^3/4f2 g2a4g2 f2_3/4e2 d2c2  | \
w:  yâr   |  gü *  le  gü *  le    | 
d4 _3/4e2^3/4f2 e2d2 c2B2 c2 | d18  | \
w:  Kar şı *  dan   |  yâr   | 
^3/4f2g2 a4 g2f2 _3/4e2d2 c2 | 
w:  gü *  le  gü *  le    | 
c4c4c8-c2  | c2B2 B2A2 A2G2 e2d2 e2 | \
w:  Yâ rim  gel  |  di   | 
d2 c2c2 B2B2 A2A6  | A6g2 ^3/4f2g2 a6 | 
w:  câ *  nım  *  gel  |  di   SAZ  | 
a3g^3/4f2 g2a8-a2  | c'4 _b2a2 g2^3/4f2 _3/4e2d2 c2 | \
w:  Sel *  vi  *  gi  |  bi   | 
e2 d2d2 c2c2 B2B4A2  | 
w:  sa *  lı *  na  | 
A6g2 ^3/4f2g2 a6 | a3g^3/4f2 g2a8-a2  | \
w:  rak   SAZ  |  Sel *  vi  *  gi  | 
_b3a g2^3/4f2 g8-g2 | g4g4g4f4_1/4e2  | 
w:  bi   |  sa lı na  | 
g3f _1/4e2g2 f2g2 f4 e2 | g4g4g4f4_1/4e2  | \
w:  rak    |  Yâ rim  gel  | 
d6_1/4e2 c4 a2g2 f2 | f2 e2e2 d2d2 c2c4B2  | 
w:  di   |  câ *  nım  *  gel  | 
B12 a2g2 f2 | f2 e2e2 d2d2 c2c4B2  | B18 | f18  | \
w:  di   Ah   |  bir  *  ta *  nem  *  gel  |  di    |  Yâr   | 
e8-e2d2 e2d2 c2 | e2 d2d2 c2c2 B2B4A2  | 
w:  yâr   |  câ *  nâ *  nım  *  gel  | 
A3|
w:  di    | 


